src/assets/icons/body-health-fitness,fancy,brain.svg

<svg width="48" height="48" viewBox="0 0 48 48" fill="none" xmlns="http://www.w3.org/2000/svg">
<path opacity="0.35" fill-rule="evenodd" clip-rule="evenodd" d="M19.154 3C20.0772 3 20.9535 3.22557 21.7416 3.63032C22.4219 3.22097 23.2 3 24.0001 3V5H14.7934C15.9171 3.76281 17.4563 3 19.154 3ZM14.7646 43C15.4878 43.2878 16.2661 43.4444 17.0771 43.4444C17.5317 43.4444 17.9761 43.3952 18.4062 43.3012C19.2894 44.3475 20.5385 45 21.9232 45C22.6665 45 23.3707 44.812 24.0001 44.4761V43H14.7646Z" fill="black"/>
<path fill-rule="evenodd" clip-rule="evenodd" d="M28.8462 3C27.923 3 27.0467 3.22557 26.2585 3.63032C25.5782 3.22097 24.8001 3 24 3V5.59985V12.3333V44.4761C24.6295 44.812 25.3337 45 26.0769 45C27.4617 45 28.7108 44.3475 29.5939 43.3012C30.0241 43.3952 30.4685 43.4444 30.9231 43.4444C34.5032 43.4444 37.4486 40.3915 37.8091 36.4764C40.3525 34.35 42 30.9467 42 27.1111C42 24.7133 41.3561 22.4845 40.2521 20.631C40.4885 19.7261 40.6154 18.7686 40.6154 17.7778C40.6154 13.4982 38.2488 9.83966 34.9058 8.36372C34.2499 5.28704 31.7858 3 28.8462 3ZM31.8122 12.4846C31.9369 12.0985 31.7347 11.6812 31.3606 11.5525C30.9865 11.4239 30.5822 11.6325 30.4575 12.0186C30.3008 12.5039 30.1259 12.8159 29.9503 13.0358C29.7762 13.2537 29.5772 13.4115 29.3298 13.5606C29.1516 13.6679 28.9783 13.755 28.7725 13.8583L28.7724 13.8583C28.6614 13.9141 28.541 13.9746 28.4053 14.0456C28.2075 14.149 27.9968 14.2656 27.7768 14.4058C27.4322 14.6254 27.341 15.0756 27.5291 15.4384C27.7248 15.8158 28.1678 15.9904 28.5845 15.9059C28.9805 15.8255 29.4202 15.7699 29.8585 15.7469C30.599 15.708 31.243 15.7672 31.6231 15.8979C31.9972 16.0266 32.4015 15.818 32.5262 15.4319C32.6509 15.0459 32.4487 14.6286 32.0746 14.4999C31.7026 14.3719 31.2528 14.3019 30.7807 14.2748C30.8734 14.1833 30.9642 14.0833 31.0521 13.9732C31.3613 13.5862 31.612 13.1045 31.8122 12.4846ZM28.891 19.9777C28.6882 19.6287 28.2496 19.5156 27.9114 19.7249C27.5733 19.9343 27.4637 20.3869 27.6665 20.7359C27.9792 21.2736 28.5361 21.9018 29.3263 22.3975C29.1986 22.4736 29.0725 22.5544 28.9502 22.6397C28.6163 22.8724 28.2833 23.1571 28.0278 23.4959C27.771 23.8363 27.5648 24.2696 27.5648 24.7778C27.5648 25.1847 27.8845 25.5146 28.2788 25.5146C28.6731 25.5146 28.9928 25.1847 28.9928 24.7778C28.9928 24.6964 29.0246 24.5734 29.1546 24.4011C29.2858 24.2271 29.4883 24.0429 29.7494 23.8609C30.2055 23.543 30.7557 23.2902 31.1743 23.1379C32.4292 23.3987 33.9475 23.2828 35.7001 22.5077C36.0625 22.3474 36.2304 21.9142 36.0751 21.5402C35.9198 21.1661 35.5 20.9929 35.1376 21.1532C33.5392 21.8601 32.2639 21.8949 31.3003 21.6579C30.012 21.341 29.206 20.5193 28.891 19.9777ZM33.8709 33.2917C34.0896 32.9531 34.001 32.4956 33.6729 32.2699C33.3448 32.0441 32.9015 32.1356 32.6827 32.4742C32.1079 33.3641 31.3646 33.706 30.5159 33.809C29.8353 33.8917 29.1225 33.8187 28.3838 33.7225C27.963 33.6676 27.5654 33.9253 27.4459 34.3325C27.3295 34.7292 27.5118 35.1596 27.8073 35.4486C28.0812 35.7164 28.3743 36.0727 28.6657 36.4853C29.1507 37.172 29.5591 37.9098 29.7822 38.3703C29.9585 38.7343 30.3874 38.8818 30.7401 38.6998C31.0928 38.5179 31.2358 38.0753 31.0594 37.7113C30.8065 37.1893 30.3581 36.3797 29.8197 35.6174C29.7486 35.5167 29.6745 35.4147 29.5976 35.3126C29.9582 35.3249 30.3236 35.3162 30.6827 35.2726C31.857 35.1301 33.0178 34.6123 33.8709 33.2917Z" fill="black"/>
<path opacity="0.6" fill-rule="evenodd" clip-rule="evenodd" d="M19.1538 3C20.077 3 20.9533 3.22557 21.7415 3.63032C22.4218 3.22097 23.1999 3 24 3V5.59985V12.3333V44.4761C23.3705 44.812 22.6663 45 21.9231 45C20.5383 45 19.2892 44.3475 18.4061 43.3012C17.9759 43.3952 17.5315 43.4444 17.0769 43.4444C13.4968 43.4444 10.5514 40.3915 10.1909 36.4764C7.64753 34.35 6 30.9467 6 27.1111C6 24.7133 6.64385 22.4845 7.74792 20.631C7.51147 19.7261 7.38462 18.7686 7.38462 17.7778C7.38462 13.4982 9.75117 9.83966 13.0942 8.36372C13.7501 5.28704 16.2142 3 19.1538 3ZM17.3069 11.207C17.1177 10.855 16.7086 10.7408 16.3931 10.952C16.0777 11.1632 15.9754 11.6198 16.1647 11.9718C16.5249 12.6419 17.1927 13.6597 18.053 14.5937C18.2689 14.8281 18.5008 15.0614 18.7467 15.2847C18.4271 15.3228 18.1067 15.3775 17.7943 15.4527C16.5358 15.7555 15.123 16.4676 14.7576 18.0988C14.6684 18.4971 14.8854 18.9006 15.2422 19.0002C15.5991 19.0998 15.9607 18.8576 16.0499 18.4594C16.2173 17.712 16.9137 17.1853 18.075 16.9059C18.8891 16.71 19.7943 16.6742 20.5504 16.7148C20.9777 16.7377 21.3716 16.4506 21.4422 16.0286C21.5089 15.6302 21.2603 15.25 20.9003 15.067C20.2264 14.7242 19.5704 14.1671 18.9818 13.5281C18.2103 12.6905 17.6127 11.7757 17.3069 11.207ZM19.3869 25.5663C19.3148 25.1638 18.9639 24.9027 18.6032 24.9832C18.2426 25.0637 18.0086 25.4553 18.0808 25.8579C18.5162 28.2876 17.2713 29.7138 16.5474 30.1841C16.3619 30.0498 16.1735 29.9265 15.9839 29.8135C14.565 28.9681 13.056 28.6853 12.0737 28.6853C11.7058 28.6853 11.4077 29.0181 11.4077 29.4286C11.4077 29.8391 11.7058 30.1719 12.0737 30.1719C12.8674 30.1719 14.1557 30.4094 15.3565 31.1249C16.5424 31.8315 17.6202 32.9874 18.0935 34.8359C18.1945 35.2306 18.5631 35.4591 18.9168 35.3464C19.2705 35.2336 19.4753 34.8222 19.3743 34.4275C19.0204 33.0451 18.3911 31.9727 17.636 31.1511C18.6791 30.2523 19.8912 28.3801 19.3869 25.5663Z" fill="black"/>
<g opacity="0.2">
<path d="M16.3927 10.9517C16.7081 10.7405 17.1172 10.8547 17.3065 11.2067C17.6123 11.7754 18.2099 12.6902 18.9814 13.5278C19.575 14.1723 20.2372 14.7335 20.9172 15.0754C21.2672 15.2514 21.5069 15.6392 21.4392 16.0437C21.3697 16.4592 21.0041 16.7412 20.6068 16.7177C19.8396 16.6722 18.9092 16.7048 18.0746 16.9056C16.9132 17.185 16.2169 17.7117 16.0495 18.4591C15.9603 18.8573 15.5987 19.0995 15.2418 18.9999C14.885 18.9003 14.668 18.4968 14.7572 18.0985C15.1226 16.4673 16.5353 15.7552 17.7938 15.4524C18.1063 15.3772 18.4267 15.3225 18.7463 15.2845C18.5004 15.0611 18.2685 14.8278 18.0526 14.5934C17.1923 13.6594 16.5245 12.6416 16.1643 11.9715C15.975 11.6195 16.0773 11.1629 16.3927 10.9517Z" fill="black"/>
<path d="M18.6028 24.9829C18.9635 24.9024 19.3144 25.1635 19.3865 25.566C19.8908 28.3798 18.6787 30.252 17.6356 31.1508C18.3906 31.9724 19.0199 33.0448 19.3738 34.4272C19.4749 34.8219 19.2701 35.2333 18.9164 35.3461C18.5627 35.4588 18.1941 35.2303 18.093 34.8356C17.6198 32.9871 16.542 31.8312 15.3561 31.1246C14.1552 30.4091 12.8669 30.1716 12.0732 30.1716C11.7054 30.1716 11.4072 29.8388 11.4072 29.4283C11.4072 29.0178 11.7054 28.685 12.0732 28.685C13.0556 28.685 14.5646 28.9678 15.9834 29.8132C16.173 29.9262 16.3614 30.0495 16.547 30.1838C17.2709 29.7135 18.5158 28.2873 18.0803 25.8576C18.0082 25.455 18.2421 25.0634 18.6028 24.9829Z" fill="black"/>
<path fill-rule="evenodd" clip-rule="evenodd" d="M31.3603 11.5522C31.7344 11.6809 31.9366 12.0982 31.8119 12.4843C31.6116 13.1042 31.3609 13.5859 31.0518 13.9729C30.9638 14.083 30.8731 14.183 30.7803 14.2745C31.2525 14.3016 31.7023 14.3716 32.0743 14.4996C32.4484 14.6283 32.6506 15.0456 32.5259 15.4316C32.4012 15.8177 31.9968 16.0263 31.6227 15.8976C31.2426 15.7669 30.5986 15.7077 29.8581 15.7466C29.3967 15.7708 28.9337 15.8312 28.5217 15.9185C28.1383 15.9998 27.7332 15.8323 27.5448 15.469C27.3498 15.093 27.4422 14.6174 27.7894 14.3973C28.0048 14.2607 28.211 14.1467 28.4049 14.0453C28.5407 13.9743 28.6611 13.9138 28.7721 13.858C28.9779 13.7546 29.1513 13.6676 29.3294 13.5603C29.5769 13.4112 29.7758 13.2534 29.9499 13.0355C30.1256 12.8156 30.3004 12.5036 30.4571 12.0183C30.5818 11.6322 30.9862 11.4236 31.3603 11.5522ZM27.9111 19.7246C28.2492 19.5152 28.6878 19.6284 28.8907 19.9774C29.2056 20.519 30.0117 21.3407 31.3 21.6576C32.2635 21.8946 33.5388 21.8598 35.1372 21.1529C35.4997 20.9926 35.9194 21.1658 36.0747 21.5399C36.2301 21.9139 36.0622 22.3471 35.6997 22.5074C33.9472 23.2825 32.4288 23.3984 31.1739 23.1376C30.7554 23.2899 30.2051 23.5427 29.7491 23.8606C29.488 24.0426 29.2855 24.2268 29.1542 24.4008C29.0243 24.5731 28.9924 24.6961 28.9924 24.7775C28.9924 25.1844 28.6728 25.5143 28.2784 25.5143C27.8841 25.5143 27.5644 25.1844 27.5644 24.7775C27.5644 24.2693 27.7706 23.836 28.0274 23.4956C28.2829 23.1568 28.6159 22.8721 28.9498 22.6394C29.0721 22.5541 29.1982 22.4733 29.3259 22.3972C28.5357 21.9015 27.9789 21.2733 27.6662 20.7355C27.4633 20.3866 27.573 19.934 27.9111 19.7246ZM33.6725 32.2696C34.0006 32.4953 34.0893 32.9528 33.8705 33.2914C33.0174 34.612 31.8566 35.1297 30.6824 35.2723C30.3233 35.3159 29.9578 35.3245 29.5972 35.3123C29.6741 35.4144 29.7483 35.5164 29.8194 35.6171C30.3578 36.3794 30.8062 37.189 31.0591 37.711C31.2354 38.0749 31.0925 38.5175 30.7398 38.6995C30.3871 38.8815 29.9582 38.734 29.7818 38.37C29.5587 37.9095 29.1503 37.1717 28.6653 36.485C28.3739 36.0723 28.0807 35.7159 27.8068 35.4481C27.5122 35.16 27.3331 34.7156 27.4521 34.3099C27.5685 33.9133 27.9353 33.6632 28.3239 33.7143C29.0838 33.8144 29.8167 33.8936 30.5155 33.8087C31.3643 33.7057 32.1075 33.3638 32.6824 32.4739C32.9011 32.1353 33.3444 32.0438 33.6725 32.2696Z" fill="black"/>
</g>
</svg>

<svg xmlns="http://www.w3.org/2000/svg" width="48" height="48" fill="none" viewBox="0 0 48 48">
  <path fill="#000" fill-rule="evenodd" d="M19.154 3c.923 0 1.8.226 2.588.63C22.422 3.221 23.2 3 24 3v2h-9.207c1.124-1.237 2.663-2 4.361-2zm-4.39 40a6.233 6.233 0 003.642.301C19.29 44.347 20.54 45 21.923 45c.744 0 1.448-.188 2.077-.524V43h-9.235z" clip-rule="evenodd" opacity=".35"/>
  <path fill="#000" fill-rule="evenodd" d="M28.846 3c-.923 0-1.8.226-2.587.63A4.377 4.377 0 0024 3v41.476c.63.336 1.334.524 2.077.524 1.385 0 2.634-.653 3.517-1.699.43.094.874.143 1.33.143 3.58 0 6.525-3.053 6.885-6.968C40.353 34.35 42 30.946 42 27.111c0-2.398-.644-4.627-1.748-6.48.236-.905.363-1.862.363-2.853 0-4.28-2.366-7.938-5.71-9.414C34.25 5.287 31.786 3 28.847 3zm2.966 9.485a.742.742 0 00-.451-.932.71.71 0 00-.904.466c-.156.485-.331.797-.507 1.017a2.223 2.223 0 01-.62.525 8.046 8.046 0 01-.557.297c-.112.056-.232.117-.368.188-.198.103-.408.22-.628.36-.345.22-.436.67-.248 1.032.196.378.639.552 1.055.468.396-.08.836-.136 1.274-.16.741-.038 1.385.021 1.765.152a.71.71 0 00.903-.466.742.742 0 00-.451-.932c-.372-.128-.822-.198-1.294-.225a3.43 3.43 0 00.271-.302c.31-.387.56-.869.76-1.488zm-2.921 7.493a.702.702 0 00-.98-.253.75.75 0 00-.245 1.01c.313.539.87 1.167 1.66 1.663a6.26 6.26 0 00-.376.242 4.051 4.051 0 00-.922.856c-.257.34-.463.774-.463 1.282 0 .407.32.737.714.737.394 0 .714-.33.714-.737 0-.082.032-.205.162-.377.13-.174.333-.358.594-.54a6.519 6.519 0 011.425-.723c1.255.26 2.773.145 4.526-.63a.746.746 0 00.375-.968.706.706 0 00-.937-.387c-1.599.707-2.874.742-3.838.505-1.288-.317-2.094-1.139-2.409-1.68zm4.98 13.314a.751.751 0 00-.198-1.022.7.7 0 00-.99.204c-.575.89-1.318 1.232-2.167 1.335-.68.083-1.393.01-2.132-.087a.86.86 0 00-.938.61c-.117.397.066.828.361 1.117.274.267.567.624.859 1.036.485.687.893 1.425 1.116 1.885a.704.704 0 00.958.33.748.748 0 00.32-.989 15.85 15.85 0 00-1.462-2.398c.36.012.726.003 1.085-.04 1.174-.143 2.335-.66 3.188-1.981z" clip-rule="evenodd"/>
  <path fill="#000" fill-rule="evenodd" d="M19.154 3c.923 0 1.8.226 2.587.63C22.421 3.221 23.2 3 24 3v41.476a4.392 4.392 0 01-2.077.524c-1.385 0-2.634-.653-3.517-1.699-.43.094-.874.143-1.33.143-3.58 0-6.525-3.053-6.885-6.968C7.648 34.35 6 30.946 6 27.111c0-2.398.644-4.627 1.748-6.48a11.28 11.28 0 01-.363-2.853c0-4.28 2.366-7.938 5.71-9.414C13.75 5.287 16.214 3 19.153 3zm-1.847 8.207c-.19-.352-.598-.466-.914-.255-.315.211-.418.668-.228 1.02a13.69 13.69 0 001.888 2.622c.216.234.448.467.694.69-.32.039-.64.093-.953.169-1.258.303-2.671 1.015-3.036 2.646-.09.398.127.802.484.901.357.1.719-.142.808-.54.167-.748.864-1.275 2.025-1.554.814-.196 1.72-.232 2.475-.191.428.023.822-.264.892-.686.067-.399-.182-.779-.542-.962-.674-.343-1.33-.9-1.918-1.539a12.234 12.234 0 01-1.675-2.321zm2.08 14.36c-.072-.403-.423-.664-.784-.584-.36.08-.594.472-.522.875.435 2.43-.81 3.856-1.534 4.326a7.566 7.566 0 00-.563-.37c-1.419-.846-2.928-1.129-3.91-1.129-.368 0-.666.333-.666.744 0 .41.298.743.666.743.793 0 2.082.237 3.283.953 1.185.706 2.263 1.862 2.736 3.71.102.396.47.624.824.511.353-.112.558-.524.457-.918-.354-1.383-.983-2.455-1.738-3.277 1.043-.899 2.255-2.77 1.75-5.585z" clip-rule="evenodd" opacity=".6"/>
  <g opacity=".2">
    <path fill="#000" d="M16.393 10.952c.315-.211.724-.097.913.255.306.568.904 1.483 1.675 2.32.594.645 1.256 1.207 1.936 1.548.35.176.59.564.522.969a.801.801 0 01-.832.674c-.767-.046-1.698-.013-2.532.188-1.162.279-1.858.806-2.026 1.553-.089.398-.45.64-.807.54-.357-.099-.574-.502-.485-.9.366-1.632 1.778-2.344 3.037-2.647.312-.075.633-.13.952-.168a11.038 11.038 0 01-.693-.69 13.69 13.69 0 01-1.889-2.622c-.189-.352-.087-.81.229-1.02zM18.603 24.983c.36-.08.711.18.784.583.504 2.814-.708 4.686-1.751 5.585.755.821 1.384 1.894 1.738 3.276.1.395-.104.806-.458.92-.353.112-.722-.117-.823-.511-.473-1.849-1.551-3.005-2.737-3.711-1.2-.716-2.49-.953-3.283-.953-.368 0-.666-.333-.666-.744 0-.41.298-.743.666-.743.983 0 2.492.283 3.91 1.128.19.113.378.236.564.37.724-.47 1.969-1.896 1.533-4.325-.072-.403.162-.795.523-.875z"/>
    <path fill="#000" fill-rule="evenodd" d="M31.36 11.552a.742.742 0 01.452.932c-.2.62-.451 1.102-.76 1.489a3.43 3.43 0 01-.272.301c.473.028.922.098 1.294.226a.742.742 0 01.452.932.71.71 0 01-.903.466c-.38-.131-1.024-.19-1.765-.151a8.793 8.793 0 00-1.336.171.885.885 0 01-.977-.449c-.195-.376-.103-.852.244-1.072a8.42 8.42 0 01.616-.352l.367-.187c.206-.103.38-.19.557-.298.248-.149.447-.307.62-.524.177-.22.351-.532.508-1.018a.71.71 0 01.903-.466zm-3.449 8.173a.702.702 0 01.98.252c.315.542 1.12 1.364 2.409 1.68.963.238 2.239.203 3.837-.504a.706.706 0 01.938.387.746.746 0 01-.375.967c-1.753.775-3.271.891-4.526.63a6.518 6.518 0 00-1.425.724 2.638 2.638 0 00-.595.54c-.13.172-.162.295-.162.377 0 .406-.32.736-.714.736a.726.726 0 01-.714-.736c0-.509.207-.942.463-1.282.256-.34.589-.624.923-.857a6.26 6.26 0 01.376-.242c-.79-.495-1.347-1.124-1.66-1.662a.75.75 0 01.245-1.01zm5.761 12.545a.751.751 0 01.199 1.021c-.854 1.321-2.014 1.839-3.189 1.981-.359.044-.724.053-1.085.04a15.85 15.85 0 011.462 2.399.748.748 0 01-.32.989.704.704 0 01-.957-.33 14.374 14.374 0 00-1.117-1.885 7.632 7.632 0 00-.858-1.037c-.295-.288-.474-.732-.355-1.138.116-.397.483-.647.872-.596.76.1 1.493.18 2.191.095.85-.103 1.593-.445 2.167-1.335a.7.7 0 01.99-.204z" clip-rule="evenodd"/>
  </g>
</svg>
